X:342
T:Des rubans, des rubines
R:Branle double
C:trad.
A:Nivernais
O:France
M:2/4
L:1/8
Q:1/4=120
K:Bb
B2|BABc|B2cc|d2cc|FFB2|BABc|B2cc|d2cc|B2||
W:
W:Mon père m'a donné
W:Des rubans, des rubines
W:Mon père m'a donné
W:Des rubans satinés.
W:
W:On me les a volés,
W:Mes rubans, mes rubines
W:On me les a volés,
W:Mes rubans satinés.
W:
W:Je les ai retrouvés,
W:Mes rubans, mes rubines
W:Je les ai retrouvés,
W:Mes rubans satinés.
W:
W:J'en ferai des jarr'tières,
W:D'mes rubans, d'mes rubines
W:J'en ferai des jarr'tières,
W:D'mes rubans satinés.
W:
W:A ma vieille grand mère,
W:Mes rubans, mes rubines
W:A ma vieille grand mère,
W:Mes rubans satinés.
W:
W:Et à mon vieux grand père,
W:Mes rubans, mes rubines
W:Et à mon vieux grand père,
W:Mes rubans satinés.

